X:1
T:Buxtehude - Aria:  La Capricciosa in G Minor.
%%score { ( 1 4 ) | ( 2 3 ) }
L:1/8
Q:1/4=100
M:4/4
K:G
V:1 treble nm="Harpsichord" snm="Hch."
V:4 treble 
V:2 bass 
V:3 bass 
V:1
"^Partita 8"!f! d>c d>=f Me>d c>e | d>e c>d MB>A G>A | B>c d>e c>a B>g | A>a Pg>f Tg>g g2 :: %4
[Q:1/4=100] B>A PB>d c>d c>B | A>B c>d MB>d G>A | B>Pc d>Me c>Md B>d | %7
 G>A MG>F[Q:1/4=90] TG>G G2[Q:1/4=80] :| %8
V:2
 G,A,B,G, CDEC | B,GA,F GDEC | DA,B,G, A,F,G,B,, | C,C,,D,,D, z PD, G,2 :: G,DG=F EA,AE | %5
 FDEF GDEC | DG,F,D, E,F,G,B,, | E,C,D,D,, z PD, G,2 :| %8
V:3
 G,, z x6 | x8 | x8 | x4 G,,4 :: x8 | x8 | x8 | x4 G,,4 :| %8
V:4
 x8 | x8 | x8 | x6 [Bd]2 :: x8 | x8 | x8 | x6 [B,D]2 :| %8

